X: 1
T: Jock Wilson's Ball
R: reel
N: Scots Guards #356 p.200
B:
D:
Z: 1997 by John Chambers <jc:trillian.mit.edu>
M: C|
L: 1/8
K: BDor
|: c- \
| "Bm"d2"(A)"c2 "Bm"B2f2 | Bcde fBBc | "Bm"d2"(A)"c2 "Bm"B2f2 | "A"~A2eA cAA :|
|: c- \
| "D"d2a2 f2ef | ~d2 fe "Bm"fBBc | "D"d2a2 f2ef | "A"~A2eA cAAB |
| "D"d2a2 f2ef | ~d2 fe "Bm"fBBc | "D"defg a2af | "A"~e2ed cee :|
